src/images/logo.svg

<svg width="22" height="22" viewBox="0 0 22 22" fill="none" xmlns="http://www.w3.org/2000/svg">
<path fill-rule="evenodd" clip-rule="evenodd" d="M16.8664 14C16.5066 14 16.1799 14.1973 15.9727 14.4915C14.8966 16.0194 13.1368 17 11.1848 17C7.98402 17 5.2998 14.3634 5.2998 11C5.2998 7.63662 7.98402 5 11.1848 5C13.1368 5 14.8966 5.98055 15.9727 7.50851C16.1799 7.8027 16.5066 8 16.8664 8H20.3418C21.0039 8 21.483 7.36637 21.2296 6.75467C19.5857 2.78726 15.7074 0 11.1848 0C5.17319 0 0.299805 4.92487 0.299805 11C0.299805 17.0751 5.17319 22 11.1848 22C15.7074 22 19.5857 19.2127 21.2296 15.2453C21.483 14.6336 21.0039 14 20.3418 14H16.8664Z" fill="white"/>
</svg>

<svg width="22" height="22" fill="none" xmlns="http://www.w3.org/2000/svg"><path fill-rule="evenodd" clip-rule="evenodd" d="M16.866 14c-.36 0-.686.197-.893.492C14.897 16.018 13.137 17 11.185 17 7.984 17 5.3 14.363 5.3 11s2.684-6 5.885-6c1.952 0 3.712.98 4.788 2.509.207.294.534.491.893.491h3.476c.662 0 1.141-.634.888-1.245C19.586 2.787 15.707 0 11.185 0 5.173 0 .3 4.925.3 11s4.873 11 10.885 11c4.522 0 8.4-2.787 10.045-6.755.253-.611-.226-1.245-.888-1.245h-3.476Z" fill="#fff"/></svg>
